!!!COM: Gaspar van Weerbeke
!!!CDT: ~1450-~1517
!!!ONB: attrib. "Gaspart" #48 in FlorC Basevi 2442
!!!OTL: Que fait le cocu au bois
!!!AGN: Song; Chanson
!!!SCT: Gas0504.2
!!!SCA: Gas0504.2
!!!voices: 4
!!!voices-extant: 3
**kern	**text	**kern	**text	**kern	**text	**kern	**text
*part4	*part4	*part3	*part3	*part2	*part2	*part1	*part1
*staff4	*staff4	*staff3	*staff3	*staff2	*staff2	*staff1	*staff1
*I"Bassus	*	*I"Tenor	*	*I"Altus	*	*I"Superius	*
*I'B	*	*I'T	*	*I'A	*	*I'S	*
*clefF4	*	*clefGv2	*	*clefGv2	*	*clefG2	*
*k[b-]	*	*k[b-]	*	*k[b-]	*	*k[b-]	*
*F:	*	*F:	*	*F:	*	*F:	*
*M2/2	*	*M2/2	*	*M2/2	*	*M2/2	*
*met(C|)	*	*met(C|)	*	*met(C|)	*	*met(C|)	*
=1	=1	=1	=1	=1	=1	=1	=1
!LO:TX:a:t=[Bassus composed by Paul Kolb]	!	!	!	!	!	!	!
2r	.	2F	Que	1r~	.	1r~	.
*	*edit	*	*	*	*	*	*
2FF	Que	2F	fait	.	.	.	.
=2	=2	=2	=2	=2	=2	=2	=2
2FF	fait	2F	le	1r	.	1r	.
2FF	le	2D	co-	.	.	.	.
=3	=3	=3	=3	=3	=3	=3	=3
2GG	co-	2E	-cu	1r	.	1r	.
2AA	-cu	2F	au	.	.	.	.
=4	=4	=4	=4	=4	=4	=4	=4
2BB-	au	1G	bois,	1r	.	1r	.
[2C	bois,	.	.	.	.	.	.
=5	=5	=5	=5	=5	=5	=5	=5
2C]	.	2.A	qui	1r	.	1r	.
[2D	qui	.	.	.	.	.	.
.	.	4G	ne	.	.	.	.
=6	=6	=6	=6	=6	=6	=6	=6
4D]	.	2F	vol-	1r	.	1r	.
8CL	ne	.	.	.	.	.	.
8BB-J	.	.	.	.	.	.	.
2AA	vol-	2F	-le,	.	.	.	.
!!LO:LB:g=original
=7	=7	=7	=7	=7	=7	=7	=7
2GG	-le,	4B-	vol-	1r	.	1r	.
.	.	4B-	-le,	.	.	.	.
4BB-	vol-	4B-	vol-	.	.	.	.
4BB-	-le,	4A	-le,	.	.	.	.
=8	=8	=8	=8	=8	=8	=8	=8
2BB-	vol-	2G	vol-	1r	.	1r	.
2AA	-le	4.F	-le'au-	.	.	.	.
.	.	8G	.	.	.	.	.
=9	=9	=9	=9	=9	=9	=9	=9
2C	au-	8AL	.	1r	.	1r	.
.	.	8GJ	.	.	.	.	.
.	.	4A	.	.	.	.	.
4BB-	.	4G	.	.	.	.	.
[4C	-cu-	[4A	-cu-	.	.	.	.
=10	=10	=10	=10	=10	=10	=10	=10
4C]	.	8AL]	.	1r	.	1r	.
.	.	8GJ	.	.	.	.	.
4AA	.	2F	.	.	.	.	.
2GG	-ne	.	.	.	.	.	.
.	.	4E	-ne	.	.	.	.
=11	=11	=11	=11	=11	=11	=11	=11
1FF	fois?	1F	fois?	2c	Que	2r	.
.	.	.	.	2c	fait	2f	Que
=12	=12	=12	=12	=12	=12	=12	=12
1ryy	.	1r	.	2c	le	2f	fait
.	.	.	.	2A	co-	2f	le
=13	=13	=13	=13	=13	=13	=13	=13
1r	.	1r	.	2B-	-cu	2d	co-
.	.	.	.	2c	au	2e	-cu
=14	=14	=14	=14	=14	=14	=14	=14
1r	.	1r	.	2d	bois,	2f	au
.	.	.	.	[2e	qui	[2g	bois,
!!LO:LB:g=original	*	*	*	*	*	*	*
=15	=15	=15	=15	=15	=15	=15	=15
1r	.	1r	.	4e]	.	2g]	.
.	.	.	.	4d	ne	.	.
.	.	.	.	4c	vol-	[2a	qui
.	.	.	.	4c	-le,	.	.
=16	=16	=16	=16	=16	=16	=16	=16
1r	.	1r	.	4f	vol-	4a]	.
.	.	.	.	4e	-le,	4g	ne
.	.	.	.	4d	vol-	2f	vol-
.	.	.	.	8cL	-le,	.	.
.	.	.	.	8B-J	.	.	.
=17	=17	=17	=17	=17	=17	=17	=17
1r	.	1r	.	2A	vol-	2f	-le,
.	.	.	.	2G	-le,	4b-	vol-
.	.	.	.	.	.	4b-	-le,
=18	=18	=18	=18	=18	=18	=18	=18
1r	.	1r	.	4B-	vol-	4.b-	vol-
.	.	.	.	4B-	-le,	.	.
.	.	.	.	.	.	8a	.
.	.	.	.	4B-	vol-	2g	-le,
.	.	.	.	4B-	-le,	.	.
=19	=19	=19	=19	=19	=19	=19	=19
1r	.	1r	.	4A	vol-	4f	.
.	.	.	.	4G	-le,	4.g	vol-
.	.	.	.	4.c	vol-	.	.
.	.	.	.	.	.	8fL	.
.	.	.	.	.	.	8e	.
.	.	.	.	8B-	.	8dJ	.
=20	=20	=20	=20	=20	=20	=20	=20
1r	.	1r	.	8AL	-le,	4c	.
.	.	.	.	8GJ	.	.	.
.	.	.	.	4F	.	2f	.
.	.	.	.	2G	vol-	.	.
.	.	.	.	.	.	4e	.
=21	=21	=21	=21	=21	=21	=21	=21
2r	.	1r	.	2F	-le,	1f	-le,
2F	que	.	.	2c	que	.	.
!!LO:PB:g=original
=22	=22	=22	=22	=22	=22	=22	=22
2F	fait	2F	que	2c	fait	2r	.
2F	le	2F	fait	2c	le	2f	que
=23	=23	=23	=23	=23	=23	=23	=23
4.D	co-	2F	le	2d	co-	2f	fait
8E	.	.	.	.	.	.	.
4F	-cu	4A	co-	4c	-cu	2f	le
4BB-	au	[4B-	-cu	[4d	au	.	.
=24	=24	=24	=24	=24	=24	=24	=24
2D	bois,	8B-L]	.	8dL]	.	2d	co-
.	.	8A	.	8AJ	.	.	.
.	.	8G	.	4B-	.	.	.
.	.	8FJ	.	.	.	.	.
2C	.	2G	au	2c	bois,	2e	-cu
=25	=25	=25	=25	=25	=25	=25	=25
1r	.	2F	bois,	4A	qui	2f	au
.	.	.	.	4A	ne	.	.
.	.	4B-	qui	4.G	vol-	[2g	bois,
.	.	4B-	ne	.	.	.	.
.	.	.	.	8F	-le,	.	.
=26	=26	=26	=26	=26	=26	=26	=26
4.C	qui	4G	vol-	4.E	vol-	2g]	.
.	.	4G	-le,	.	.	.	.
8BB-	ne	.	.	8D	-le,	.	.
*	*	*	*	*	*edit	*	*
4AA	vol-	[2c	vol-	4C	vol-	[2a	qui
4FF	-le,	.	.	4C	-le,	.	.
=27	=27	=27	=27	=27	=27	=27	=27
2.F	vol-	4c]	.	2r	.	4a]	.
.	.	4B-	.	.	.	4g	ne
.	.	2A	-le'au-	4r	.	4f	vol-
*	*	*	*	*	*Xedit	*	*
4F	-le'au-	.	.	4c	qui	4f	-le'au-
=28	=28	=28	=28	=28	=28	=28	=28
4G	-cu-	2G	-cu-	4d	ne	2b-	-cu-
4E	.	.	.	4e	vol-	.	.
4F	.	4F	.	4A	-le'au-	4a	.
4C	.	4E	.	[4c	-cu-	[4g	.
!!LO:LB:g=original	*	*	*	*	*	*	*
=29	=29	=29	=29	=29	=29	=29	=29
2D	.	2F	.	8cL]	.	4g]	.
.	.	.	.	8AJ	.	.	.
.	.	.	.	4B-	.	2f	.
2C	-ne	2G	-ne	2c	-ne	.	.
.	.	.	.	.	.	4e	-ne
=30	=30	=30	=30	=30	=30	=30	=30
1FF	fois?	1F	fois?	1A	fois?	1f	fois?
=31	=31	=31	=31	=31	=31	=31	=31
1r	.	1r	.	2e	Ung	1r	.
.	.	.	.	2e	hom-	.	.
=32	=32	=32	=32	=32	=32	=32	=32
2A	Ung	1r	.	2c	-me'est	1r	.
2A	hom-	.	.	2e	en	.	.
=33	=33	=33	=33	=33	=33	=33	=33
2F	-me'est	1r	.	2.f	ces-	1r	.
2A	en	.	.	.	.	.	.
.	.	.	.	4e	-te	.	.
=34	=34	=34	=34	=34	=34	=34	=34
2.B-	ces-	1r	.	2d	vil-	1r	.
.	.	.	.	2c	-le,	.	.
4A	-te	.	.	.	.	.	.
!!LO:LB:g=original	*	*	*	*	*	*	*
=35	=35	=35	=35	=35	=35	=35	=35
2G	vil-	2B-	Ung	2r	.	1r	.
*	*	*	*	*	*edit	*	*
2F	-le,	2A	hom-	[2f	ces-	.	.
=36	=36	=36	=36	=36	=36	=36	=36
2r	.	2F	-me'est	4f]	.	2a	Ung
.	.	.	.	8eL	-te	.	.
.	.	.	.	8dJ	.	.	.
2F	Ung	2A	en	2c	vil-	2a	hom-
=37	=37	=37	=37	=37	=37	=37	=37
1BB-	hom-	2.B-	ces-	1d	-le,	1f	-me'est
.	.	4B-	-te	.	.	.	.
=38	=38	=38	=38	=38	=38	=38	=38
2F	-me'est	2A	vil-	2r	.	1a	en
*	*	*	*	*	*Xedit	*	*
2D	en	2F	-le	2d	en	.	.
=39	=39	=39	=39	=39	=39	=39	=39
2.G	ces-	1r	.	4.d	ces-	2.b-	ces-
.	.	.	.	8c	.	.	.
.	.	.	.	8dL	-te	.	.
.	.	.	.	8eJ	.	.	.
4F	-te	.	.	[4f	vil-	4a	-te
=40	=40	=40	=40	=40	=40	=40	=40
2C	vil-	1r	.	4f]	.	2g	vil-
.	.	.	.	4e	.	.	.
2D	-le	.	.	2f	-le	2f	-le
=41	=41	=41	=41	=41	=41	=41	=41
1r	.	2A	qui	2e	qui	1r	.
.	.	2A	est	4e	est	.	.
.	.	.	.	4f	co-	.	.
=42	=42	=42	=42	=42	=42	=42	=42
2F	qui	1F	co-	4f	-cu	2a	qui
.	.	.	.	8eL	.	.	.
.	.	.	.	8dJ	.	.	.
2F	est	.	.	2c	.	2a	est
!!LO:PB:g=original	*	*	*	*	*	*	*
=43	=43	=43	=43	=43	=43	=43	=43
2D	co-	1A	-cu	2d	.	2f	co-
2F	-cu	.	.	4c	par	2a	-cu
.	.	.	.	4f	ma	.	.
=44	=44	=44	=44	=44	=44	=44	=44
2G	par	2B-	par	4e	.	2g	par
.	.	.	.	2d	foy.	.	.
4D	ma	2A	ma	.	.	2f	ma
4F	.	.	.	[4c	.	.	.
=45	=45	=45	=45	=45	=45	=45	=45
1C	foy.	1G	foy.	4c]	.	1e	foy.
.	.	.	.	8B-L	.	.	.
.	.	.	.	8AJ	.	.	.
.	.	.	.	2G	.	.	.
=46	=46	=46	=46	=46	=46	=46	=46
1r	.	1r	.	2e	Ne	1r	.
.	.	.	.	2e	fut	.	.
=47	=47	=47	=47	=47	=47	=47	=47
1r	.	1r	.	2c	l'hon-	2a	Ne
.	.	.	.	2f	-neur	2a	fut
=48	=48	=48	=48	=48	=48	=48	=48
2r	.	1r	.	4d	de	2f	l'hon-
.	.	.	.	8cL	.	.	.
.	.	.	.	8B-J	.	.	.
2A	Ne	.	.	4A	sa	2a	-neur
.	.	.	.	[4c	fem-	.	.
=49	=49	=49	=49	=49	=49	=49	=49
2A	fut	2r	.	8cL]	.	4cc	de
.	.	.	.	8dJ	.	.	.
.	.	.	.	4e	.	4cc	sa
2F	l'hon-	2A	Ne	2f	-me,	4.cc	fem-
.	.	.	.	.	.	8b-	.
!!LO:LB:g=original
=50	=50	=50	=50	=50	=50	=50	=50
*	*	*	*	*	*edit	*	*
2.F	-neur	2A	fut	8FL	l'hon-	2.a	.
.	.	.	.	8G	.	.	.
.	.	.	.	8A	.	.	.
.	.	.	.	8B-J	.	.	.
.	.	2F	l'hon-	[2c	-neur	.	.
8EL	.	.	.	.	.	8gL	.
8DJ	.	.	.	.	.	8fJ	.
=51	=51	=51	=51	=51	=51	=51	=51
2C	.	2A	-neur	4c]	.	2e	-me;
.	.	.	.	8B-L	.	.	.
.	.	.	.	8AJ	.	.	.
[2BB-	de	[2G	de	[2d	de	2r	.
=52	=52	=52	=52	=52	=52	=52	=52
4BB-]	.	4G]	.	4d]	.	1r	.
4AA	sa	4F	sa	8cL	sa	.	.
.	.	.	.	8dJ	.	.	.
2GG	fem-	2E	fem-	8eL	fem-	.	.
.	.	.	.	8d	.	.	.
.	.	.	.	8c	.	.	.
.	.	.	.	8B-J	.	.	.
=53	=53	=53	=53	=53	=53	=53	=53
1FF	-me;	2F	-me;	2A	-me;	2r	.
*	*	*	*	*	*Xedit	*	*
.	.	4F	je	4c	je	4a	je
.	.	4F	le	4c	le	4a	le
=54	=54	=54	=54	=54	=54	=54	=54
2r	.	2F	vous	4c	vous	4a	vous
.	.	.	.	4A	mon-	4a	mon-
4BB-	je	2D	mon-	4B-	-stras-	4f	-stras-
4BB-	le	.	.	4B-	-se'au	8eL	.
.	.	.	.	.	.	8dJ	.
=55	=55	=55	=55	=55	=55	=55	=55
*	*	*	*	*lig	*	*	*
4C	vous	2E	-stras-	2G	doibt.	2c	.
4C	mon-	.	.	.	.	.	.
4AA	-stras-	2F	-se'au	2c	.	2f	-se'au
4FF	-se'au	.	.	.	.	.	.
*	*	*	*	*Xlig	*	*	*
=56	=56	=56	=56	=56	=56	=56	=56
2C	doibt,	1G	doibt.	2r	.	2e	doibt,
4r	.	.	.	4c	Que	4r	.
4C	au	.	.	4c	fait	4e	au
!!LO:LB:g=original	*	*	*	*	*	*	*
=57	=57	=57	=57	=57	=57	=57	=57
4AA	.	1r	.	4c	le	4c	.
2D	.	.	.	4A	co-	2f	.
.	.	.	.	4.B-	-cu	.	.
4C	.	.	.	.	.	4e	.
.	.	.	.	8c	au	.	.
=58	=58	=58	=58	=58	=58	=58	=58
2BB-	doibt.	4F	Que	4d	bois,	2f	doibt.
.	.	4F	fait	4d	que	.	.
4BB-	Que	4F	le	4d	fait	2r	.
4BB-	fait	4D	co-	4d	le	.	.
=59	=59	=59	=59	=59	=59	=59	=59
4GG	le	4E	-cu	4B-	co-	1r	.
4AA	co-	4F	au	4A	-cu	.	.
4BB-	-cu	2G	bois,	4d	au	.	.
4C	au	.	.	4e	bois,	.	.
=60	=60	=60	=60	=60	=60	=60	=60
*	*	*	*	*	*edit	*	*
2FF	bois,	4.A	qui	4.c	qui	4f	Que
.	.	.	.	.	.	4f	fait
.	.	8A	ne	8c	ne	.	.
4.BB-	qui	4F	vol-	4d	vol-	4f	le
.	.	4F	-le,	4f	-le,	4d	co-
8AA	ne	.	.	.	.	.	.
=61	=61	=61	=61	=61	=61	=61	=61
4GG	vol-	2r	.	4e	vol-	4e	-cu
4FF	-le,	.	.	4d	-le,	4f	au
2r	.	4.B-	vol-	2r	.	2g	bois,
.	.	8B-	-le,	.	.	.	.
=62	=62	=62	=62	=62	=62	=62	=62
*	*	*	*	*	*Xedit	*	*
4.C	vol-	4G	vol-	4.e	qui	2r	.
.	.	4G	-le,	.	.	.	.
8BB-	-le,	.	.	8d	ne	.	.
4AA	vol-	2r	.	4c	vol-	4.a	qui
4AA	-le,	.	.	4c	-le,	.	.
.	.	.	.	.	.	8g	ne
!!LO:PB:g=original	*	*	*	*	*	*	*
=63	=63	=63	=63	=63	=63	=63	=63
2r	.	8AL	vol-	4.c	vol-	4f	vol-
.	.	8A	-le,	.	.	.	.
.	.	8A	vol-	.	.	4f	-le,
.	.	8AJ	-le,	8c	-le,	.	.
8DL	vol-	4F	vol-	4d	vol-	2r	.
8D	-le,	.	.	.	.	.	.
8D	vol-	4F	-le,	4d	-le,	.	.
8DJ	-le,	.	.	.	.	.	.
=64	=64	=64	=64	=64	=64	=64	=64
4BB-	vol-	2r	.	2r	.	4.b-	vol-
4BB-	-le,	.	.	.	.	.	.
.	.	.	.	.	.	8a	-le,
2r	.	8B-L	vol-	8dL	vol-	4g	vol-
.	.	8B-	-le,	8d	-le,	.	.
.	.	8B-	vol-	8d	vol-	4g	-le,
.	.	8B-J	-le,	8dJ	-le,	.	.
=65	=65	=65	=65	=65	=65	=65	=65
8CL	vol-	4G	vol-	4e	vol-	2r	.
8C	-le,	.	.	.	.	.	.
8C	vol-	4G	-le,	4e	-le,	.	.
8CJ	-le,	.	.	.	.	.	.
4G	vol-	2r	.	2r	.	8b-L	vol-
.	.	.	.	.	.	8b-	-le,
4G	-le,	.	.	.	.	8b-	vol-
.	.	.	.	.	.	8b-J	-le,
=66	=66	=66	=66	=66	=66	=66	=66
2r	.	4.c	qui	4e	vol-	4g	vol-
.	.	.	.	4e	-le,	4g	-le,
.	.	8B-	.	.	.	.	.
4F	qui	4A	.	4f	vol-	4.cc	vol-
4E	ne	4G	ne	4g	-le'au-	.	.
.	.	.	.	.	.	8b-	-le,
=67	=67	=67	=67	=67	=67	=67	=67
4F	vol-	4F	vol-	8cL	-cu-	4a	vol-
.	.	.	.	8dJ	.	.	.
4C	-le'au-	2c	-le'au-	4e	.	4g	-le,
4F	-cu-	.	.	4.A	.	4.a	vol-
8EL	.	[4c	-cu-	.	.	.	.
8DJ	.	.	.	8B-	.	8g	.
=68	=68	=68	=68	=68	=68	=68	=68
2C	.	4c]	.	2c	-ne	4e	-le'au-
.	.	8B-L	.	.	.	2f	-cu-
.	.	8AJ	.	.	.	.	.
2C	-ne	2G	-ne	[2c	fois?	.	.
.	.	.	.	.	.	4e	-ne
!!linebreak:original
=69	=69	=69	=69	=69	=69	=69	=69
1FFl	fois?	1Fl	fois?	1cl]	.	1fl	fois?
==	==	==	==	==	==	==	==
*-	*-	*-	*-	*-	*-	*-	*-
!!!system-decoration: [*]
!!!RDF**kern: l = terminal breve
!!!PTL: Gaspar van Weerbeke: Collected Works. V. Settings of Liturgical Texts, Songs, and Instrumental Works
!!!PPR: American Institute of Musicology
!!!PC#: Corpus Mensurabilis Musicae 106/V
!!!PDT: 2020
!!!PED: Kolb, Paul
!!!ENC: Kolb, Paul
!!!EED: Zybina, Karina
!!!EEV: 2021/07/28
